1 LUT HLG3.cube
LUT_3D_SIZE 6
0.050356 0.062026 0.080166
0.122484 0.086484 0.101820
0.332140 0.122789 0.134458
0.620191 0.177794 0.185023
0.814462 0.240273 0.243292
0.934705 0.300294 0.299643
0.094210 0.139937 0.117293
0.139230 0.143960 0.122290
0.344033 0.201038 0.152954
0.624957 0.263538 0.203817
0.815288 0.306381 0.260934
0.933901 0.346427 0.314437
0.187853 0.368427 0.196271
0.246052 0.371971 0.201406
0.397279 0.387334 0.220138
0.653439 0.462758 0.275893
0.829183 0.480511 0.326904
0.940614 0.484322 0.367751
0.355211 0.673303 0.348925
0.398531 0.675171 0.354968
0.531955 0.683416 0.373415
0.709327 0.699680 0.407160
0.859312 0.691357 0.442244
0.956706 0.664553 0.461299
0.520071 0.873177 0.508577
0.543250 0.874075 0.513690
0.625455 0.878338 0.526732
0.753207 0.887238 0.549322
0.904393 0.900787 0.581389
0.980484 0.852579 0.577805
0.634960 1.001449 0.625073
0.648756 1.002099 0.629517
0.699880 1.005474 0.638366
0.788184 1.012416 0.652652
0.903464 1.023255 0.672894
1.025677 1.038040 0.698995
0.066888 0.078346 0.136755
0.122608 0.090353 0.142850
0.325901 0.128528 0.197745
0.606636 0.188664 0.261291
0.797455 0.252300 0.304218
0.917586 0.310909 0.343774
0.097051 0.141385 0.153089
0.139734 0.145513 0.157153
0.335291 0.170363 0.180443
0.611192 0.223444 0.230617
0.800188 0.286116 0.290376
0.919536 0.343510 0.345075
0.193388 0.369377 0.248653
0.223819 0.371576 0.231093
0.395123 0.388357 0.251658
0.644618 0.452597 0.304889
0.818610 0.473238 0.355106
0.930113 0.483565 0.395667
0.361081 0.673629 0.392802
0.386147 0.674508 0.382692
0.525394 0.683193 0.401722
0.706053 0.700274 0.435687
0.853173 0.689841 0.467173
0.950077 0.664949 0.485000
0.523267 0.873223 0.533723
0.541352 0.873712 0.534308
0.623602 0.878084 0.547301
0.751107 0.887189 0.569538
0.901814 0.901055 0.600785
0.977001 0.852941 0.595902
0.636498 1.001585 0.639538
0.649800 1.002005 0.643894
0.700533 1.005400 0.652738
0.788157 1.012413 0.666833
0.902681 1.023386 0.686771
1.024385 1.038310 0.712116
0.090041 0.099933 0.308462
0.173310 0.108623 0.312878
0.334231 0.136678 0.329617
0.614058 0.194618 0.420065
0.804079 0.256862 0.440411
0.923100 0.314388 0.445773
0.117371 0.186958 0.322129
0.150033 0.154491 0.321319
0.343859 0.177789 0.338561
0.618745 0.229732 0.412896
0.806843 0.290963 0.434807
0.925071 0.346983 0.447236
0.198899 0.374968 0.374819
0.230312 0.377553 0.378041
0.402555 0.394027 0.394411
0.648315 0.431181 0.430777
0.824499 0.476752 0.475107
0.937223 0.516960 0.513770
0.364294 0.676947 0.509415
0.389945 0.677863 0.505831
0.520409 0.685358 0.509472
0.711251 0.702817 0.537144
0.858526 0.695469 0.561746
0.956339 0.684894 0.580144
0.524575 0.875141 0.603837
0.542778 0.875757 0.604560
0.634200 0.880000 0.623330
0.758622 0.888767 0.641505
0.906202 0.902389 0.667426
0.981725 0.861509 0.665806
0.636529 1.003238 0.680336
0.650024 1.003674 0.683993
0.719200 1.007683 0.710067
0.801722 1.014418 0.721930
0.910815 1.024989 0.738795
1.028460 1.039488 0.760469
0.120764 0.127766 0.577866
0.225261 0.135127 0.580365
0.418198 0.161224 0.590169
0.626020 0.207085 0.609373
0.813858 0.267375 0.615080
0.931369 0.322602 0.590637
0.144568 0.231437 0.585607
0.171806 0.173903 0.584306
0.408849 0.197718 0.594303
0.630921 0.242807 0.613937
0.816866 0.301793 0.614565
0.933368 0.355182 0.592326
0.227699 0.438763 0.617242
0.254460 0.426704 0.617246
0.417722 0.406807 0.622951
0.659849 0.442456 0.642867
0.833771 0.485193 0.640464
0.945022 0.522738 0.635066
0.373401 0.682971 0.677196
0.399522 0.684148 0.679306
0.530413 0.691670 0.687258
0.720132 0.708310 0.703996
0.870282 0.729401 0.724604
0.969276 0.749014 0.743229
0.529614 0.878604 0.723566
0.547848 0.879196 0.724610
0.639813 0.883286 0.736050
0.786262 0.893039 0.771407
0.912976 0.905287 0.787664
0.989413 0.888039 0.793062
0.638765 1.006081 0.759402
0.652246 1.006559 0.762142
0.722141 1.010407 0.781098
0.840773 1.019692 0.827616
0.931364 1.029121 0.838784
1.034883 1.042181 0.853697
0.147721 0.151402 0.772068
0.240006 0.157314 0.773399
0.425291 0.179175 0.778628
0.624314 0.220425 0.788951
0.827283 0.284119 0.805344
0.942249 0.335836 0.754890
0.166674 0.242460 0.776111
0.195306 0.194449 0.775668
0.413057 0.215160 0.780914
0.622755 0.255906 0.791400
0.830280 0.318732 0.807941
0.944346 0.368083 0.756672
0.241123 0.436273 0.793014
0.268653 0.423300 0.792936
0.436506 0.422415 0.797501
0.645085 0.453221 0.808079
0.846426 0.497882 0.823874
0.955270 0.531926 0.781546
0.377086 0.660752 0.826478
0.401305 0.658426 0.827085
0.534183 0.668088 0.831593
0.731343 0.715124 0.845559
0.880757 0.735419 0.858854
0.977623 0.753262 0.844700
0.538579 0.883558 0.874084
0.556674 0.884237 0.875464
0.648609 0.888209 0.879908
0.794365 0.897081 0.889037
0.921451 0.908946 0.900857
1.005172 0.920363 0.911868
0.643327 1.010160 0.869073
0.656698 1.010687 0.870623
0.727184 1.014340 0.881358
0.846447 1.022993 0.907989
0.956458 1.034634 0.938955
1.043082 1.045588 0.949166
0.168340 0.168755 0.894463
0.241574 0.173110 0.895154
0.406089 0.190797 0.898298
0.587818 0.225833 0.904470
0.773147 0.281070 0.914541
0.955080 0.354162 0.928470
0.183567 0.241651 0.896751
0.215390 0.211287 0.896782
0.397563 0.228357 0.899897
0.586344 0.262755 0.906229
0.774706 0.316334 0.916251
0.957169 0.385946 0.930313
0.246777 0.412111 0.906950
0.276866 0.403423 0.907132
0.454222 0.436700 0.911900
0.623332 0.461469 0.918203
0.798132 0.498096 0.927881
0.966946 0.544408 0.941344
0.365227 0.613847 0.927688
0.390739 0.612669 0.927964
0.533830 0.638024 0.932389
0.741905 0.721244 0.945994
0.861994 0.737561 0.954394
0.987220 0.759166 0.966201
0.511513 0.820512 0.958943
0.530237 0.821022 0.959329
0.632022 0.833718 0.963229
0.792925 0.869990 0.973843
0.929384 0.912227 0.988004
1.014055 0.923439 0.999546
0.651949 1.015301 1.002401
0.664894 1.015869 1.003063
0.734727 1.019335 1.006690
0.853179 1.027346 1.014901
0.962722 1.038072 1.025870
1.050828 1.048804 1.036795
