1 LUT HLG3.cube
LUT_3D_SIZE 16
0.050356 0.062026 0.080166
0.060430 0.068318 0.085703
0.084796 0.077018 0.093402
0.122484 0.086484 0.101820
0.174508 0.096918 0.111127
0.243743 0.108811 0.121821
0.332140 0.122789 0.134458
0.432647 0.139307 0.149512
0.532349 0.157995 0.166699
0.620191 0.177794 0.185023
0.696191 0.198452 0.204232
0.760682 0.219475 0.223833
0.814462 0.240273 0.243292
0.858824 0.260102 0.261883
0.893008 0.276981 0.277720
0.934705 0.300294 0.299643
0.060788 0.075306 0.089223
0.064916 0.076270 0.090222
0.087018 0.083830 0.096340
0.123876 0.092698 0.103949
0.175469 0.103155 0.112894
0.244491 0.115638 0.123442
0.332658 0.130535 0.136073
0.432846 0.147811 0.151208
0.532268 0.166712 0.168496
0.619879 0.186155 0.186905
0.695624 0.206080 0.206126
0.760080 0.226308 0.225777
0.813718 0.246314 0.245209
0.857986 0.265385 0.263714
0.892139 0.281579 0.279418
0.933838 0.304384 0.301369
0.075680 0.101453 0.101855
0.079537 0.101866 0.102381
0.094064 0.103540 0.104357
0.129450 0.113480 0.111165
0.180124 0.125268 0.119371
0.248689 0.140077 0.129471
0.336307 0.158037 0.141920
0.435780 0.177878 0.157043
0.534331 0.197569 0.174334
0.621272 0.215852 0.192718
0.696421 0.233572 0.211839
0.760510 0.251115 0.231419
0.813905 0.268262 0.250643
0.857953 0.284663 0.268898
0.892006 0.298449 0.284277
0.933458 0.319263 0.305942
0.094210 0.139937 0.117293
0.098147 0.140220 0.117716
0.113480 0.141478 0.119287
0.139230 0.143960 0.122290
0.189132 0.159387 0.130513
0.257306 0.178457 0.140511
0.344033 0.201038 0.152954
0.442263 0.224693 0.168164
0.539294 0.246043 0.185517
0.624957 0.263538 0.203817
0.699184 0.278839 0.222758
0.762474 0.293028 0.242032
0.815288 0.306381 0.260934
0.858931 0.318837 0.278651
0.892783 0.328820 0.293288
0.933901 0.346427 0.314437
0.118024 0.194513 0.136899
0.122360 0.194769 0.137325
0.138976 0.195937 0.138770
0.166998 0.198293 0.141583
0.202887 0.202048 0.145883
0.270968 0.226752 0.156504
0.356583 0.254588 0.169459
0.452883 0.282367 0.185109
0.547592 0.305690 0.202699
0.631349 0.322841 0.220923
0.704217 0.336254 0.239694
0.766313 0.347325 0.258594
0.818298 0.356890 0.276860
0.861238 0.365081 0.293674
0.894415 0.370630 0.307060
0.935199 0.384556 0.327399
0.148795 0.270859 0.162529
0.153542 0.271134 0.163024
0.171814 0.272295 0.164509
0.202977 0.274692 0.167312
0.243366 0.278489 0.171672
0.290092 0.283908 0.177652
0.374186 0.316796 0.191684
0.467938 0.348203 0.208232
0.559591 0.373116 0.226400
0.640798 0.389877 0.244770
0.711549 0.401544 0.263328
0.772179 0.409880 0.281661
0.822806 0.415815 0.298853
0.864924 0.419905 0.314193
0.897482 0.421028 0.325872
0.937373 0.431257 0.345180
0.187853 0.368427 0.196271
0.192934 0.368651 0.196880
0.212431 0.369731 0.198485
0.246052 0.371971 0.201406
0.290056 0.375538 0.205897
0.341147 0.380604 0.212100
0.397279 0.387334 0.220138
0.487684 0.421158 0.238081
0.575434 0.446675 0.257193
0.653439 0.462758 0.275893
0.721745 0.472615 0.294107
0.780083 0.478125 0.311353
0.829183 0.480511 0.326904
0.870127 0.480630 0.340372
0.901677 0.477583 0.349955
0.940614 0.484322 0.367751
0.236622 0.477167 0.239636
0.241642 0.477350 0.240427
0.260723 0.478271 0.242168
0.294335 0.480178 0.245309
0.339214 0.483204 0.249992
0.391870 0.487568 0.256455
0.449960 0.493255 0.264860
0.511922 0.500382 0.275233
0.595153 0.525340 0.295499
0.669393 0.539894 0.314200
0.734281 0.547350 0.331372
0.790220 0.549967 0.347131
0.837442 0.548962 0.360650
0.876834 0.545319 0.371736
0.907171 0.538349 0.378900
0.944923 0.541813 0.394991
0.294301 0.581732 0.292165
0.298710 0.581871 0.293060
0.315536 0.582617 0.294936
0.346033 0.584155 0.298200
0.388022 0.586618 0.302963
0.438353 0.590072 0.309474
0.494592 0.594639 0.317814
0.555031 0.600333 0.328040
0.618311 0.607187 0.340195
0.688027 0.619472 0.358307
0.749410 0.624354 0.374286
0.802411 0.623920 0.388149
0.847473 0.619706 0.399435
0.885292 0.612574 0.408044
0.913948 0.601754 0.412305
0.950318 0.602256 0.426375
0.355211 0.673303 0.348925
0.358909 0.673448 0.349873
0.372787 0.673958 0.351778
0.398531 0.675171 0.354968
0.435095 0.677184 0.359458
0.480332 0.679949 0.365599
0.531955 0.683416 0.373415
0.588160 0.687991 0.382901
0.647630 0.693448 0.394142
0.709327 0.699680 0.407160
0.766736 0.701942 0.421583
0.816781 0.698595 0.433360
0.859312 0.691357 0.442244
0.895150 0.681075 0.448123
0.922179 0.666727 0.449426
0.956706 0.664553 0.461299
0.415004 0.751776 0.405782
0.417890 0.751679 0.406758
0.429153 0.752212 0.408660
0.450274 0.753059 0.411577
0.480985 0.754689 0.415794
0.520031 0.756863 0.421379
0.565610 0.759702 0.428375
0.616270 0.763285 0.436933
0.670557 0.767620 0.447042
0.727430 0.772685 0.458683
0.786010 0.778403 0.471688
0.832795 0.772545 0.481315
0.872872 0.762708 0.487724
0.906506 0.749461 0.490851
0.931431 0.732122 0.489215
0.963985 0.727397 0.498792
0.470741 0.817825 0.459882
0.473208 0.817905 0.460935
0.482156 0.818198 0.462669
0.499238 0.818954 0.465362
0.524654 0.820204 0.469144
0.557565 0.821905 0.474077
0.596927 0.824214 0.480286
0.641447 0.827176 0.487812
0.690054 0.830689 0.496628
0.741662 0.834873 0.506723
0.795195 0.839538 0.518045
0.850489 0.844896 0.530518
0.887934 0.832800 0.534521
0.919137 0.817076 0.535019
0.941873 0.797206 0.530611
0.972070 0.790345 0.537965
0.520071 0.873177 0.508577
0.522026 0.873165 0.509618
0.529277 0.873455 0.511224
0.543250 0.874075 0.513690
0.564181 0.875046 0.517043
0.591814 0.876463 0.521355
0.625455 0.878338 0.526732
0.664158 0.880806 0.533104
0.707045 0.883713 0.540641
0.753207 0.887238 0.549322
0.801958 0.891197 0.558958
0.852445 0.895646 0.569722
0.904393 0.900787 0.581389
0.932728 0.883181 0.579532
0.953106 0.861015 0.572667
0.980484 0.852579 0.577805
0.561773 0.919329 0.550402
0.563459 0.919305 0.551434
0.569434 0.919618 0.553041
0.580929 0.920071 0.555242
0.598387 0.920887 0.558232
0.621689 0.922186 0.561963
0.650391 0.923787 0.566585
0.684021 0.925835 0.572070
0.721770 0.928298 0.578491
0.762864 0.931371 0.585886
0.806829 0.934773 0.594109
0.852880 0.938594 0.603267
0.900597 0.942894 0.613316
0.947227 0.947659 0.624097
0.965088 0.923663 0.615015
0.990997 0.914164 0.618295
0.594204 0.955364 0.583352
0.595694 0.955298 0.584487
0.600766 0.955519 0.586014
0.610343 0.955969 0.587982
0.625035 0.956675 0.590625
0.644800 0.957745 0.593864
0.669571 0.959123 0.597834
0.698736 0.960848 0.602542
0.731981 0.963024 0.608024
0.768529 0.965781 0.614290
0.808067 0.968676 0.621350
0.849926 0.972167 0.629176
0.893668 0.975782 0.637735
0.937489 0.979982 0.647075
0.977326 0.984565 0.657047
1.007609 0.976030 0.658704
0.634960 1.001449 0.625073
0.636279 1.001448 0.626204
0.640597 1.001641 0.627712
0.648756 1.002099 0.629517
0.661256 1.002867 0.631898
0.678356 1.003984 0.634870
0.699880 1.005474 0.638366
0.725582 1.007363 0.642423
0.755040 1.009677 0.647185
0.788184 1.012416 0.652652
0.824123 1.015586 0.658708
0.862768 1.019209 0.665445
0.903464 1.023255 0.672894
0.944333 1.027767 0.681021
0.981321 1.032649 0.689697
1.025677 1.038040 0.698995
0.054425 0.066161 0.087932
0.060917 0.069216 0.090191
0.084216 0.077595 0.097995
0.120875 0.087135 0.106773
0.171665 0.097936 0.116932
0.239340 0.110558 0.129057
0.325895 0.125774 0.143811
0.424385 0.143902 0.161167
0.522172 0.164181 0.180202
0.608441 0.185225 0.199583
0.683273 0.206637 0.219192
0.747024 0.228056 0.238789
0.800320 0.248873 0.257856
0.844432 0.268472 0.275867
0.878780 0.285010 0.290993
0.920658 0.307870 0.312335
0.061198 0.075720 0.092928
0.065094 0.076669 0.093826
0.085512 0.081757 0.098425
0.121452 0.089936 0.105806
0.171945 0.100079 0.114986
0.239494 0.112346 0.126144
0.325862 0.127317 0.139863
0.424216 0.145336 0.156507
0.521918 0.165561 0.175416
0.608108 0.186588 0.195194
0.682854 0.207983 0.215439
0.746600 0.229411 0.235735
0.799833 0.250231 0.255472
0.843976 0.269836 0.274052
0.878295 0.286383 0.289693
0.920138 0.309240 0.311412
0.076051 0.101614 0.105841
0.078245 0.101811 0.105069
0.093673 0.103688 0.107243
0.127651 0.112201 0.113575
0.177023 0.123284 0.121894
0.244115 0.137710 0.132554
0.329948 0.155600 0.146046
0.427607 0.175860 0.162606
0.524519 0.196483 0.181417
0.610071 0.215981 0.201040
0.684335 0.234887 0.221050
0.747663 0.253480 0.241161
0.800617 0.271458 0.260667
0.844568 0.288439 0.278964
0.878771 0.302599 0.294213
0.920338 0.323533 0.315706
0.094934 0.139980 0.121912
0.096536 0.140044 0.120514
0.112144 0.141401 0.122220
0.138289 0.144097 0.125474
0.186707 0.158506 0.133742
0.253317 0.177044 0.144296
0.338328 0.199408 0.157779
0.434720 0.223228 0.174364
0.530176 0.245171 0.193061
0.614535 0.263457 0.212356
0.687815 0.279661 0.232035
0.750477 0.294648 0.251737
0.802777 0.308712 0.270774
0.846385 0.321738 0.288431
0.880185 0.332101 0.302923
0.921504 0.349915 0.323878
0.119429 0.194459 0.142659
0.120780 0.194510 0.140791
0.137468 0.195732 0.142400
0.165472 0.198192 0.145429
0.201329 0.202163 0.150067
0.267703 0.226115 0.161262
0.351604 0.253614 0.175225
0.446165 0.281369 0.192128
0.539290 0.304977 0.210893
0.621817 0.322655 0.229961
0.693551 0.336653 0.249205
0.755088 0.348364 0.268326
0.806640 0.358509 0.286638
0.849499 0.367196 0.303293
0.882747 0.373170 0.316491
0.923561 0.387335 0.336618
0.151292 0.270726 0.170071
0.152516 0.270743 0.167792
0.170644 0.271940 0.169453
0.201533 0.274418 0.172500
0.241519 0.278406 0.177177
0.287793 0.284061 0.183577
0.370142 0.316361 0.198570
0.462155 0.347600 0.216235
0.552199 0.372572 0.235317
0.632252 0.389692 0.254294
0.702034 0.401765 0.273131
0.761839 0.410550 0.291475
0.812224 0.416906 0.308620
0.854115 0.421366 0.323655
0.886574 0.422866 0.335141
0.926720 0.433374 0.354090
0.191709 0.368155 0.205822
0.192916 0.368060 0.203355
0.212117 0.369251 0.205162
0.245186 0.371563 0.208377
0.288537 0.375314 0.213165
0.338853 0.380545 0.219743
0.394228 0.387422 0.228194
0.482921 0.420939 0.247055
0.569176 0.446400 0.266815
0.645971 0.462609 0.285833
0.713167 0.472687 0.304110
0.770970 0.478510 0.321238
0.819715 0.481263 0.336671
0.860300 0.481684 0.349740
0.891818 0.478891 0.358947
0.930762 0.485850 0.376433
0.241580 0.476742 0.250771
0.242848 0.476715 0.248508
0.261555 0.477688 0.250528
0.294432 0.479628 0.253889
0.338416 0.482792 0.258870
0.390162 0.487298 0.265624
0.447254 0.493171 0.274310
0.508368 0.500563 0.285050
0.590062 0.525286 0.305652
0.662973 0.539804 0.324428
0.726959 0.547406 0.341536
0.782270 0.550280 0.357009
0.828950 0.549523 0.370277
0.868193 0.546096 0.381124
0.898339 0.539264 0.387712
0.936016 0.542893 0.403413
0.299559 0.581300 0.303759
0.300817 0.581248 0.302038
0.317328 0.582023 0.304202
0.347096 0.583588 0.307678
0.388065 0.586111 0.312724
0.437399 0.589694 0.319449
0.492638 0.594405 0.328017
0.551959 0.600277 0.338397
0.614363 0.607333 0.350677
0.682926 0.619514 0.368765
0.743360 0.624382 0.384463
0.795593 0.624189 0.397994
0.840126 0.620084 0.408958
0.877516 0.613090 0.417108
0.906189 0.602440 0.420937
0.942397 0.603096 0.434575
0.360095 0.672766 0.360035
0.361347 0.672831 0.358991
0.374988 0.673404 0.361132
0.400176 0.674510 0.364494
0.435904 0.676575 0.369309
0.480071 0.679355 0.375578
0.530697 0.683087 0.383555
0.585900 0.687773 0.393133
0.644446 0.693419 0.404535
0.705316 0.699836 0.417532
0.761692 0.701991 0.431648
0.810939 0.698747 0.442995
0.853011 0.691642 0.451478
0.888555 0.681441 0.456871
0.915295 0.667178 0.457763
0.949804 0.665153 0.469183
0.419256 0.751291 0.416153
0.420479 0.751166 0.415657
0.431491 0.751720 0.417709
0.452107 0.752452 0.420810
0.482207 0.754190 0.425232
0.520351 0.756384 0.430939
0.565073 0.759305 0.438119
0.614749 0.762953 0.446806
0.668159 0.767431 0.456907
0.724138 0.772688 0.468482
0.782080 0.778595 0.481505
0.828052 0.772769 0.490675
0.867564 0.762868 0.496611
0.900799 0.749685 0.499267
0.925594 0.732374 0.497186
0.958142 0.727996 0.506347
0.474396 0.817451 0.469348
0.475485 0.817384 0.469248
0.484349 0.817630 0.471173
0.501101 0.818356 0.474049
0.526000 0.819733 0.477976
0.558244 0.821480 0.483086
0.596849 0.823797 0.489382
0.640635 0.826815 0.496966
0.688291 0.830471 0.505769
0.739028 0.834748 0.515858
0.792180 0.839577 0.527140
0.846763 0.845002 0.539492
0.883603 0.832989 0.543064
0.914370 0.817384 0.543156
0.936908 0.797446 0.538239
0.966952 0.790748 0.545084
0.523101 0.872815 0.517033
0.524071 0.872745 0.517300
0.531285 0.872992 0.519127
0.544980 0.873626 0.521693
0.565514 0.874629 0.525242
0.592657 0.876063 0.529656
0.625628 0.878006 0.535079
0.663744 0.880557 0.541548
0.705950 0.883524 0.549083
0.751398 0.887040 0.557708
0.799472 0.891117 0.567260
0.849538 0.895712 0.577931
0.900851 0.900815 0.589497
0.928894 0.883398 0.587198
0.949000 0.861175 0.579897
0.976178 0.852791 0.584579
0.564334 0.918972 0.558020
0.565308 0.918968 0.558482
0.571239 0.919173 0.560170
0.582530 0.919614 0.562599
0.599712 0.920581 0.565633
0.622611 0.921754 0.569552
0.650869 0.923431 0.574182
0.683929 0.925508 0.579696
0.720983 0.928062 0.586113
0.761638 0.931194 0.593478
0.804959 0.934637 0.601668
0.850641 0.938625 0.610735
0.897847 0.942982 0.620643
0.944084 0.947766 0.631275
0.961785 0.923767 0.621789
0.987443 0.914345 0.624598
0.596414 0.954976 0.590169
0.597277 0.954923 0.590811
0.602249 0.955114 0.592427
0.611783 0.955617 0.594630
0.626219 0.956307 0.597313
0.645732 0.957424 0.600727
0.670081 0.958851 0.604777
0.698793 0.960635 0.609507
0.731590 0.962871 0.614974
0.767751 0.965570 0.621220
0.806779 0.968582 0.628177
0.848250 0.972051 0.635923
0.891628 0.975774 0.644335
0.935048 0.979973 0.653576
0.974723 0.984750 0.663277
1.004710 0.976159 0.664645
0.636781 1.001162 0.631141
0.637578 1.001101 0.631902
0.641814 1.001288 0.633510
0.649975 1.001744 0.635526
0.662361 1.002516 0.638006
0.679289 1.003644 0.641054
0.700427 1.005155 0.644575
0.725864 1.007073 0.648743
0.754895 1.009415 0.653501
0.787607 1.012193 0.658869
0.823153 1.015409 0.664910
0.861510 1.019084 0.671675
0.901787 1.023195 0.678933
0.942390 1.027749 0.686887
0.979203 1.032680 0.695417
1.023333 1.038126 0.704429
0.060401 0.072069 0.107587
0.066426 0.073960 0.108565
0.085094 0.079183 0.111512
0.121149 0.088319 0.120967
0.171474 0.099017 0.132611
0.238705 0.111733 0.147272
0.324728 0.127197 0.165218
0.422572 0.145696 0.185259
0.519783 0.166350 0.205394
0.605663 0.187660 0.224052
0.680015 0.209247 0.241933
0.743603 0.230726 0.259347
0.796766 0.251525 0.276137
0.840841 0.271070 0.291967
0.875136 0.287499 0.305231
0.916918 0.310256 0.324930
0.065703 0.080959 0.110316
0.067279 0.078812 0.109814
0.086407 0.083146 0.112611
0.121780 0.091055 0.120664
0.171847 0.101108 0.131372
0.239014 0.113439 0.145168
0.324951 0.128654 0.162248
0.422766 0.146969 0.181615
0.519894 0.167528 0.201442
0.605764 0.188771 0.220243
0.680071 0.210313 0.238486
0.743593 0.231776 0.256382
0.796784 0.252607 0.273687
0.840799 0.272143 0.290020
0.875142 0.288599 0.303686
0.916898 0.311369 0.323776
0.076979 0.102264 0.117158
0.079197 0.102503 0.117435
0.094280 0.104355 0.119172
0.126773 0.108878 0.123342
0.175422 0.116236 0.130095
0.241918 0.126531 0.139557
0.327321 0.140144 0.152129
0.424647 0.157251 0.168061
0.521369 0.176990 0.186603
0.606774 0.197738 0.206212
0.681032 0.219063 0.226445
0.744344 0.240478 0.246830
0.797383 0.261327 0.266676
0.841401 0.280873 0.285277
0.875551 0.297273 0.300816
0.917350 0.319917 0.322385
0.095731 0.140430 0.133731
0.097330 0.140529 0.133024
0.109403 0.141542 0.131755
0.138534 0.144491 0.134994
0.185834 0.155436 0.141767
0.251696 0.170622 0.151232
0.336145 0.189809 0.163856
0.432176 0.211119 0.179832
0.527401 0.231919 0.198219
0.611650 0.250474 0.217529
0.684901 0.267816 0.237343
0.747644 0.284547 0.257282
0.799996 0.300508 0.276574
0.843593 0.315369 0.294502
0.877575 0.327559 0.309324
0.918909 0.346692 0.330277
0.120236 0.194874 0.155607
0.121607 0.194902 0.154316
0.131759 0.195626 0.150414
0.162737 0.198296 0.153501
0.201394 0.202505 0.158223
0.266786 0.223354 0.168315
0.350022 0.248133 0.181443
0.444119 0.273788 0.197746
0.537003 0.296238 0.216194
0.619373 0.313705 0.235202
0.691116 0.328146 0.254520
0.752561 0.340819 0.273805
0.804232 0.352159 0.292289
0.847120 0.362100 0.309152
0.880550 0.369363 0.322600
0.921305 0.384550 0.342735
0.152169 0.271125 0.184720
0.153420 0.271159 0.182974
0.162143 0.271778 0.176527
0.196102 0.274338 0.179626
0.238996 0.278486 0.184400
0.287780 0.284368 0.190998
0.369230 0.314024 0.205115
0.460674 0.343264 0.222163
0.550548 0.367069 0.240876
0.630332 0.383710 0.259709
0.699941 0.395838 0.278511
0.759930 0.405155 0.296932
0.810200 0.412261 0.314103
0.852195 0.417528 0.329386
0.884760 0.419966 0.341007
0.924881 0.431151 0.359969
0.192688 0.368571 0.221854
0.193923 0.368487 0.219830
0.201804 0.369027 0.211643
0.237818 0.371384 0.214899
0.283976 0.375175 0.219790
0.336710 0.380521 0.226526
0.394171 0.387739 0.235237
0.482069 0.419074 0.253375
0.567961 0.443298 0.272688
0.644448 0.458788 0.291436
0.711695 0.468720 0.309559
0.769292 0.474702 0.326619
0.818099 0.477871 0.342032
0.858737 0.478828 0.355222
0.890264 0.476667 0.364567
0.929343 0.484157 0.382039
0.242550 0.477101 0.266728
0.243863 0.477082 0.264828
0.251300 0.477386 0.256647
0.286548 0.479393 0.260085
0.332956 0.482637 0.265174
0.386784 0.487255 0.272063
0.445664 0.493245 0.280961
0.508181 0.500778 0.291883
0.589320 0.524005 0.311837
0.661957 0.537654 0.330172
0.725848 0.544930 0.347000
0.781034 0.547704 0.362310
0.827711 0.547103 0.375535
0.866998 0.544072 0.386309
0.897133 0.537597 0.393068
0.934921 0.541673 0.408665
0.300435 0.581517 0.318041
0.301714 0.581473 0.316540
0.308875 0.581753 0.309987
0.340146 0.583364 0.313537
0.382848 0.585910 0.318620
0.433754 0.589556 0.325460
0.490333 0.594359 0.334106
0.550830 0.600322 0.344621
0.614162 0.607482 0.357072
0.682287 0.618672 0.374494
0.742660 0.623098 0.389874
0.794820 0.622508 0.403100
0.839190 0.618495 0.413925
0.876675 0.611738 0.422058
0.905258 0.601286 0.425938
0.941554 0.602230 0.439523
0.360817 0.673033 0.371939
0.362039 0.672978 0.371003
0.368695 0.673126 0.366449
0.394771 0.674450 0.369926
0.431504 0.676449 0.374700
0.476810 0.679312 0.381023
0.528405 0.682993 0.389009
0.584395 0.687746 0.398724
0.643746 0.693485 0.410152
0.705142 0.700024 0.423185
0.761347 0.701528 0.436840
0.810402 0.697865 0.447855
0.852442 0.690641 0.456128
0.887929 0.680463 0.461471
0.914683 0.666499 0.462393
0.949181 0.664541 0.473772
0.419831 0.751367 0.425740
0.420994 0.751308 0.425253
0.426995 0.751537 0.422458
0.448167 0.752466 0.425628
0.478809 0.753976 0.430003
0.517682 0.756301 0.435765
0.563014 0.759144 0.442949
0.613327 0.762993 0.451634
0.667174 0.767427 0.461785
0.723761 0.772775 0.473405
0.782023 0.778650 0.486445
0.827817 0.772337 0.495160
0.867223 0.762268 0.500944
0.900459 0.749164 0.503465
0.925168 0.731982 0.501440
0.957647 0.727377 0.510427
0.474735 0.817606 0.476872
0.475832 0.817538 0.476831
0.481219 0.817536 0.475320
0.498264 0.818344 0.478236
0.523496 0.819620 0.482188
0.556176 0.821389 0.487255
0.595209 0.823785 0.493568
0.639332 0.826763 0.501128
0.687523 0.830440 0.509962
0.738561 0.834768 0.519984
0.791825 0.839609 0.531227
0.846748 0.845081 0.543631
0.883540 0.832760 0.546878
0.914241 0.816995 0.546825
0.936725 0.797054 0.542040
0.966892 0.790374 0.548743
0.523297 0.872932 0.522965
0.524286 0.872861 0.523227
0.529120 0.872941 0.522676
0.542956 0.873580 0.525248
0.563700 0.874522 0.528742
0.591047 0.876052 0.533189
0.624396 0.878028 0.538578
0.662701 0.880556 0.545123
0.705147 0.883485 0.552640
0.750856 0.887038 0.561220
0.799234 0.891158 0.570792
0.849455 0.895805 0.581420
0.900923 0.900883 0.592920
0.928874 0.883193 0.590480
0.948999 0.861032 0.583166
0.976186 0.852532 0.587820
0.564403 0.919113 0.562716
0.565378 0.919086 0.563180
0.569664 0.919182 0.563222
0.581101 0.919656 0.565599
0.598325 0.920565 0.568638
0.621409 0.921681 0.572530
0.649885 0.923509 0.577219
0.683091 0.925598 0.582700
0.720506 0.928071 0.589153
0.761132 0.931191 0.596466
0.804784 0.934666 0.604632
0.850504 0.938614 0.613714
0.897850 0.943028 0.623590
0.944279 0.947856 0.634215
0.961809 0.923777 0.624709
0.987515 0.914214 0.627484
0.596401 0.955187 0.593838
0.597280 0.955116 0.594523
0.601192 0.955087 0.595021
0.610766 0.955587 0.597169
0.625344 0.956281 0.599967
0.644956 0.957434 0.603300
0.669460 0.958836 0.607335
0.698315 0.960628 0.612085
0.731152 0.962876 0.617563
0.767440 0.965589 0.623751
0.806568 0.968595 0.630761
0.848107 0.972109 0.638482
0.891557 0.975813 0.646910
0.935229 0.980087 0.656101
0.974805 0.984703 0.665801
1.004866 0.976023 0.667104
0.636736 1.001296 0.634074
0.637506 1.001235 0.634748
0.641076 1.001316 0.635600
0.649253 1.001772 0.637649
0.661663 1.002545 0.640095
0.678557 1.003671 0.643122
0.699903 1.005183 0.646707
0.725442 1.007100 0.650865
0.754619 1.009442 0.655618
0.787384 1.012221 0.660970
0.823101 1.015437 0.667001
0.861421 1.019113 0.673724
0.901916 1.023216 0.681081
0.942573 1.027786 0.689025
0.979308 1.032723 0.697536
1.023599 1.038177 0.706602
0.066888 0.078346 0.136755
0.072683 0.079612 0.137341
0.092739 0.083950 0.139418
0.122608 0.090353 0.142850
0.172671 0.100687 0.156946
0.239914 0.113199 0.175294
0.325901 0.128528 0.197745
0.423717 0.146910 0.221590
0.520880 0.167465 0.243413
0.606636 0.188664 0.261291
0.681044 0.210160 0.276795
0.744478 0.231556 0.291009
0.797455 0.252300 0.304218
0.841513 0.271787 0.316625
0.875801 0.288155 0.326657
0.917586 0.310909 0.343774
0.070917 0.086398 0.138492
0.071657 0.082979 0.137859
0.092388 0.086915 0.139909
0.123291 0.093000 0.143410
0.173134 0.102745 0.156558
0.240270 0.114889 0.174119
0.326167 0.129947 0.195845
0.423970 0.148162 0.219102
0.521003 0.168582 0.240537
0.606762 0.189725 0.258378
0.681075 0.211174 0.274059
0.744594 0.232601 0.288547
0.797462 0.253366 0.302128
0.841588 0.272821 0.314845
0.875870 0.289218 0.325232
0.917566 0.311904 0.342582
0.082066 0.109802 0.144128
0.083338 0.108377 0.143907
0.096143 0.106026 0.144232
0.128194 0.110352 0.147478
0.176699 0.117633 0.157531
0.243210 0.127853 0.171793
0.328556 0.141379 0.190019
0.425869 0.158405 0.210439
0.522496 0.178048 0.230368
0.607882 0.198707 0.248186
0.682026 0.219911 0.264806
0.745343 0.241253 0.280823
0.798139 0.262035 0.296227
0.842253 0.281516 0.310735
0.876480 0.297874 0.322723
0.918125 0.320505 0.341362
0.097051 0.141385 0.153089
0.098702 0.141519 0.153305
0.110772 0.142604 0.154390
0.139734 0.145513 0.157153
0.185946 0.150772 0.162096
0.251187 0.158911 0.169699
0.335291 0.170363 0.180443
0.431265 0.185470 0.194654
0.526658 0.203655 0.211834
0.611192 0.223444 0.230617
0.684655 0.244223 0.250415
0.747613 0.265427 0.270653
0.800188 0.286116 0.290376
0.843954 0.305364 0.308716
0.878083 0.321500 0.324044
0.919536 0.343510 0.345075
0.121370 0.195731 0.177054
0.122747 0.195784 0.176505
0.132944 0.196590 0.175027
0.158691 0.198878 0.173346
0.202385 0.203295 0.177930
0.266961 0.218808 0.186229
0.349695 0.238094 0.197652
0.443523 0.259240 0.212442
0.536470 0.279263 0.229798
0.619096 0.296618 0.248333
0.691191 0.312606 0.267661
0.752752 0.327667 0.287168
0.804547 0.341829 0.305905
0.847597 0.354806 0.323164
0.881279 0.364996 0.337127
0.922073 0.382314 0.357197
0.153108 0.271986 0.209098
0.154355 0.272022 0.208005
0.163173 0.272720 0.204131
0.186281 0.274709 0.197440
0.235145 0.279007 0.202173
0.288768 0.285107 0.208777
0.369436 0.310104 0.221226
0.460510 0.335583 0.236871
0.550258 0.357091 0.254619
0.630175 0.373068 0.273028
0.700076 0.385802 0.291701
0.760135 0.396363 0.310165
0.810688 0.405166 0.327553
0.852715 0.412494 0.343100
0.885515 0.417025 0.355231
0.925618 0.429853 0.374097
0.193388 0.369377 0.248653
0.194652 0.369321 0.247213
0.202580 0.369933 0.241474
0.223819 0.371576 0.231093
0.276124 0.375491 0.236012
0.333772 0.381057 0.242827
0.395123 0.388357 0.251658
0.482455 0.416213 0.268446
0.568056 0.438106 0.286771
0.644618 0.452597 0.304889
0.711920 0.462464 0.322655
0.769787 0.469084 0.339651
0.818610 0.473238 0.355106
0.859383 0.475528 0.368500
0.891095 0.474943 0.378293
0.930113 0.483565 0.395667
0.243081 0.477821 0.293823
0.244376 0.477812 0.292334
0.251928 0.478199 0.286069
0.271908 0.479520 0.275154
0.323349 0.482765 0.280239
0.381503 0.487460 0.287266
0.443802 0.493581 0.296218
0.509065 0.501233 0.307292
